X:213
T:Rufus
C:Judi Stellar
M:C|
K:Am
|:"Am"EECB, A,2 A,B, | CDEG- "G"GG "Bm" ^F2| "Am"EECB, A,2 A,B, | CDA,B,-"Em7" B,4|
"Am"EECB, A,2 A,B, | CDEG- "G"GG "Bm" ^F2| "Am"AG^FG- "G"GF E2 |1"Em7" EECB, "Am"A,4:|2"Em7" EECB, "Am"A,3 E||
|:"Am"ABcd "Dm"efec | "Am"dedB "Dm"cAEE| "Am"ABcd "Dm"ecAd|"Am"cdcB-"Em7"B2-BE|
"Am"ABcd "Dm"efec | "Am"dedB "Dm"cAEE| ccBA GE-E2 |1"Em7" EECB, "Am"A,3 E:|2"Em7" EECB, "Am"A,4|]
W:  1989 Judi Stellar. All rights reserved. Used by permission.
